src/next/cmd/lc_wrapcontour.svg

<?xml version="1.0" encoding="UTF-8" standalone="no"?>
<svg
   xmlns:dc="http://purl.org/dc/elements/1.1/"
   xmlns:cc="http://creativecommons.org/ns#"
   xmlns:rdf="http://www.w3.org/1999/02/22-rdf-syntax-ns#"
   xmlns:svg="http://www.w3.org/2000/svg"
   xmlns="http://www.w3.org/2000/svg"
   xmlns:sodipodi="http://sodipodi.sourceforge.net/DTD/sodipodi-0.dtd"
   xmlns:inkscape="http://www.inkscape.org/namespaces/inkscape"
   height="24"
   width="24"
   version="1.1"
   id="svg47"
   sodipodi:docname="lc_wrapcontour.svg"
   inkscape:version="0.92.4 (unknown)">
  <metadata
     id="metadata53">
    <rdf:RDF>
      <cc:Work
         rdf:about="">
        <dc:format>image/svg+xml</dc:format>
        <dc:type
           rdf:resource="http://purl.org/dc/dcmitype/StillImage" />
        <dc:title></dc:title>
      </cc:Work>
    </rdf:RDF>
  </metadata>
  <defs
     id="defs51" />
  <sodipodi:namedview
     pagecolor="#ffffff"
     bordercolor="#666666"
     borderopacity="1"
     objecttolerance="10"
     gridtolerance="10"
     guidetolerance="10"
     inkscape:pageopacity="0"
     inkscape:pageshadow="2"
     inkscape:window-width="1366"
     inkscape:window-height="714"
     id="namedview49"
     showgrid="true"
     inkscape:zoom="10.429825"
     inkscape:cx="17.476313"
     inkscape:cy="7.5414241"
     inkscape:window-x="0"
     inkscape:window-y="28"
     inkscape:window-maximized="1"
     inkscape:current-layer="g877">
    <inkscape:grid
       type="xygrid"
       id="grid860" />
  </sodipodi:namedview>
  <filter
     id="a">
    <feGaussianBlur
       stdDeviation="2.0786429"
       id="feGaussianBlur2" />
  </filter>
  <radialGradient
     id="b"
     cx="109.42462"
     cy="127.15892"
     gradientTransform="matrix(1,0,0,0.9996653,-8.000004,3.603016)"
     gradientUnits="userSpaceOnUse"
     r="139.55859">
    <stop
       offset="0"
       stop-color="#b7b8b9"
       id="stop5" />
    <stop
       offset=".18851049"
       stop-color="#ececec"
       id="stop7" />
    <stop
       offset=".25718147"
       stop-color="#fafafa"
       id="stop9" />
    <stop
       offset=".30111277"
       stop-color="#fff"
       id="stop11" />
    <stop
       offset=".5313"
       stop-color="#fafafa"
       id="stop13" />
    <stop
       offset=".8449"
       stop-color="#ebecec"
       id="stop15" />
    <stop
       offset="1"
       stop-color="#e1e2e3"
       id="stop17" />
  </radialGradient>
  <clipPath
     id="c">
    <path
       d="M 0,0 H 128 V 128 H 0 Z"
       id="path20"
       inkscape:connector-curvature="0" />
  </clipPath>
  <g
     id="g877"
     transform="scale(0.1875)">
    <g
       id="g45"
       transform="translate(-2.666664,-2.26659)"
       clip-path="url(#c)">
      <path
         id="path23"
         d="m 5.9999943,6.6 0.04,116.69993 H 122.77992 L 122.73992,6.6 Z"
         inkscape:connector-curvature="0"
         style="opacity:0.55390296;filter:url(#a)" />
      <path
         id="path25"
         d="M 7.9999943,7.6 V 119.59993 H 119.23617 l 0.83598,-0.004 0.008,-0.8398 L 119.99992,7.6 Z"
         inkscape:connector-curvature="0"
         style="fill:#ffffff" />
      <path
         id="path27"
         d="m 14.999994,13.2 c -0.551,0 -1,0.449185 -1,1 l -0.18,99.57993 99.109926,0.02 c 0.69134,0 1.35,-1.06653 1.35,-1.84375 L 114.13992,14.4 c 0,-0.550815 -0.448,-1 -1,-1 z"
         style="fill:url(#b)"
         inkscape:connector-curvature="0" />
      <g
         id="g41"
         style="fill:#404040;fill-opacity:0.83921599">
        <path
           id="path29"
           transform="scale(-1,1)"
           d="m -109.33327,18.266661 h 90.666611 v 5.333331 h -90.666611 z"
           inkscape:connector-curvature="0" />
        <path
           id="path31"
           transform="translate(2.666664,2.26659)"
           d="m 16,96 v 5.33398 H 70.3125 A 9.0631907,9.0631907 0 0 1 64.257812,96 Z m 77.890625,0 a 9.0631907,9.0631907 0 0 1 -6.085937,5.33398 H 106.66602 V 96 Z"
           inkscape:connector-curvature="0" />
        <path
           id="path33"
           transform="translate(2.666664,2.26659)"
           d="m 16,32 v 5.333984 H 29.189453 C 29.698168,35.537438 30.369566,33.758777 31.212891,32 Z m 35.666016,0 c 0.07673,0.554484 0.0868,0.584544 0.173828,1.255859 0.172345,1.329387 0.283805,2.676297 0.382812,4.078125 h 15.6875 a 9.0631907,9.0631907 0 0 1 16.177735,0 H 106.66602 V 32 Z"
           inkscape:connector-curvature="0" />
        <path
           id="path35"
           transform="translate(2.666664,2.26659)"
           d="m 16,48 v 5.333984 H 29.013672 C 28.644327,51.557107 28.37062,49.78682 28.222656,48 Z m 39.972656,0 c 1.162004,1.981571 2.53573,3.707588 4.105469,5.333984 h 7.044922 C 66.901516,52.574917 66.695021,51.783884 66.521484,50.916016 66.335957,49.988184 66.215297,49.009573 66.158203,48 Z m 32.958985,0 c 0.578309,1.439674 1.233037,3.203523 1.972656,5.333984 H 106.66602 V 48 Z"
           inkscape:connector-curvature="0" />
        <path
           id="path37"
           transform="translate(2.666664,2.26659)"
           d="m 16,64 v 5.333984 H 34.464844 C 33.644808,67.66421 32.884894,65.877089 32.162109,64 Z m 77.666016,0 c 0.161525,1.667784 0.248785,3.465731 0.316406,5.333984 H 106.66602 V 64 Z"
           inkscape:connector-curvature="0" />
        <path
           id="path39"
           transform="translate(2.666664,2.26659)"
           d="m 16,80 v 5.333984 H 48.054688 C 46.705959,84.435184 45.39295,83.462663 44.128906,82.361328 43.276983,81.619065 42.463672,80.828543 41.681641,80 Z m 78.244141,0 c 0.03491,1.812888 0.07161,3.60728 0.109375,5.333984 H 106.66602 V 80 Z"
           inkscape:connector-curvature="0" />
      </g>
      <path
         id="path43"
         d="M 88.174619,94.846118 C 87.74685,85.327008 87.913248,69.81468 86.955874,64.432306 80.764205,44.986723 80.687458,50.802596 78.668519,43.680309 c -1.94666,6.292789 -0.29165,9.293039 1.94997,15.037659 1.021633,6.786647 -1.874818,14.713931 -2.924971,17.744533 C 62.58783,68.475672 49.790785,60.938807 46.006575,41.575024 c 0,-1.80456 -0.974986,-8.421142 -0.974986,-8.421142 -6.452409,9.178232 -6.151639,15.157635 -3.168691,25.864881 5.952573,18.465901 13.401143,22.276736 29.026358,27.970166 0.969211,0.288544 3.866985,0.402874 4.387429,1.503765 0.522797,0.851616 0.02813,4.216563 0.03034,6.353424 z"
         inkscape:connector-curvature="0"
         style="fill:#0066ff;fill-rule:evenodd" />
    </g>
  </g>
</svg>

<?xml version="1.0" encoding="UTF-8" standalone="no"?>
<!-- Created with Inkscape (http://www.inkscape.org/) -->

<svg
   xmlns:dc="http://purl.org/dc/elements/1.1/"
   xmlns:cc="http://creativecommons.org/ns#"
   xmlns:rdf="http://www.w3.org/1999/02/22-rdf-syntax-ns#"
   xmlns:svg="http://www.w3.org/2000/svg"
   xmlns="http://www.w3.org/2000/svg"
   xmlns:xlink="http://www.w3.org/1999/xlink"
   xmlns:sodipodi="http://sodipodi.sourceforge.net/DTD/sodipodi-0.dtd"
   xmlns:inkscape="http://www.inkscape.org/namespaces/inkscape"
   width="128"
   height="128"
   id="svg2606"
   sodipodi:version="0.32"
   inkscape:version="0.92.3 (unknown)"
   version="1.0"
   sodipodi:docname="lc_wrapcontour.svg"
   inkscape:output_extension="org.inkscape.output.svgz.inkscape"
   inkscape:export-filename="/home/rizmut/Dokumen/Rizmut/Github/libreoffice-style-karasa-jaga/build/next/cmd/lc_wrapcontour.png"
   inkscape:export-xdpi="18"
   inkscape:export-ydpi="18">
  <defs
     id="defs2608">
    <linearGradient
       id="linearGradient6111">
      <stop
         style="stop-color:#9c0f0f;stop-opacity:1;"
         offset="0"
         id="stop6113" />
      <stop
         id="stop7088"
         offset="0.5"
         style="stop-color:#e81919;stop-opacity:1;" />
      <stop
         style="stop-color:#cd1313;stop-opacity:1;"
         offset="1"
         id="stop6115" />
    </linearGradient>
    <radialGradient
       id="XMLID_8_"
       cx="102"
       cy="112.3047"
       r="139.55859"
       gradientUnits="userSpaceOnUse">
      <stop
         offset="0"
         style="stop-color:#b7b8b9;stop-opacity:1;"
         id="stop41" />
      <stop
         offset="0.18851049"
         style="stop-color:#ECECEC"
         id="stop47" />
      <stop
         offset="0.25718147"
         style="stop-color:#FAFAFA"
         id="stop49" />
      <stop
         offset="0.30111277"
         style="stop-color:#FFFFFF"
         id="stop51" />
      <stop
         offset="0.5313"
         style="stop-color:#FAFAFA"
         id="stop53" />
      <stop
         offset="0.8449"
         style="stop-color:#EBECEC"
         id="stop55" />
      <stop
         offset="1"
         style="stop-color:#E1E2E3"
         id="stop57" />
    </radialGradient>
    <filter
       inkscape:collect="always"
       id="filter2770">
      <feGaussianBlur
         inkscape:collect="always"
         stdDeviation="2.0786429"
         id="feGaussianBlur2772" />
    </filter>
    <radialGradient
       inkscape:collect="always"
       xlink:href="#XMLID_8_"
       id="radialGradient2306"
       gradientUnits="userSpaceOnUse"
       gradientTransform="matrix(1,0,0,0.9996653,-8.0000037,3.6030161)"
       cx="109.42462"
       cy="127.15892"
       r="139.55859"
       fx="109.42462"
       fy="127.15892" />
    <clipPath
       clipPathUnits="userSpaceOnUse"
       id="clipPath5152">
      <rect
         style="opacity:1;fill:#692608;fill-opacity:1;stroke:none;stroke-width:1.13385832;stroke-linecap:round;stroke-linejoin:round;stroke-miterlimit:4;stroke-dasharray:none;stroke-dashoffset:0;stroke-opacity:1"
         id="rect5154"
         width="128"
         height="128"
         x="0"
         y="0"
         ry="0" />
    </clipPath>
  </defs>
  <sodipodi:namedview
     id="base"
     pagecolor="#ffffff"
     bordercolor="#666666"
     borderopacity="1.0"
     inkscape:pageopacity="0.0"
     inkscape:pageshadow="2"
     inkscape:zoom="2"
     inkscape:cx="35.9053"
     inkscape:cy="26.835843"
     inkscape:document-units="px"
     inkscape:current-layer="g5148"
     width="128px"
     height="128px"
     showgrid="true"
     inkscape:grid-points="true"
     showguides="true"
     inkscape:guide-bbox="true"
     inkscape:window-width="1366"
     inkscape:window-height="706"
     inkscape:window-x="0"
     inkscape:window-y="0"
     inkscape:snap-bbox="true"
     inkscape:object-nodes="true"
     gridtolerance="10"
     inkscape:window-maximized="1"
     inkscape:snap-page="true"
     inkscape:snap-smooth-nodes="true">
    <inkscape:grid
       type="xygrid"
       id="grid5197"
       spacingx="5.33333"
       spacingy="5.33333"
       empspacing="1" />
  </sodipodi:namedview>
  <metadata
     id="metadata2611">
    <rdf:RDF>
      <cc:Work
         rdf:about="">
        <dc:format>image/svg+xml</dc:format>
        <dc:type
           rdf:resource="http://purl.org/dc/dcmitype/StillImage" />
        <dc:title></dc:title>
      </cc:Work>
    </rdf:RDF>
  </metadata>
  <g
     inkscape:label="Livello 1"
     inkscape:groupmode="layer"
     id="layer1">
    <g
       id="g5148"
       clip-path="url(#clipPath5152)"
       transform="translate(-2.6666643,-2.26659)">
      <path
         inkscape:connector-curvature="0"
         sodipodi:nodetypes="ccccc"
         id="path7865"
         d="m 5.9999943,6.6 0.04,116.69993 H 122.77992 L 122.73992,6.6 Z"
         style="opacity:0.55390332;fill:#000000;fill-opacity:1;filter:url(#filter2770)" />
      <path
         inkscape:connector-curvature="0"
         sodipodi:nodetypes="ccccccc"
         id="path34"
         d="m 7.9999943,7.6 0,111.99993 111.2361757,0 0.83598,-0.004 0.008,-0.8398 L 119.99992,7.6 Z"
         style="fill:#ffffff;fill-opacity:1" />
      <path
         inkscape:connector-curvature="0"
         sodipodi:nodetypes="cccccccc"
         id="path59"
         d="m 14.999994,13.2 c -0.551,0 -1,0.449185 -1,1 l -0.18,99.57993 99.109926,0.02 c 0.69134,0 1.35,-1.06653 1.35,-1.84375 L 114.13992,14.4 c 0,-0.550815 -0.448,-1 -1,-1 z"
         style="fill:url(#radialGradient2306);fill-opacity:1" />
      <rect
         transform="scale(-1,1)"
         ry="0"
         rx="0"
         y="18.266661"
         x="-109.33327"
         height="5.3333306"
         width="90.666611"
         id="rect2970"
         style="opacity:1;fill:#404040;fill-opacity:0.83921569;stroke:none;stroke-width:6.17102623;stroke-linecap:round;stroke-linejoin:bevel;stroke-miterlimit:4;stroke-dasharray:none;stroke-dashoffset:0;stroke-opacity:1" />
      <path
         style="opacity:1;fill:#404040;fill-opacity:0.83921569;stroke:none;stroke-width:6.17102623;stroke-linecap:round;stroke-linejoin:bevel;stroke-miterlimit:4;stroke-dasharray:none;stroke-dashoffset:0;stroke-opacity:1"
         d="M 16 96 L 16 101.33398 L 70.3125 101.33398 A 9.0631907 9.0631907 0 0 1 64.257812 96 L 16 96 z M 93.890625 96 A 9.0631907 9.0631907 0 0 1 87.804688 101.33398 L 106.66602 101.33398 L 106.66602 96 L 93.890625 96 z "
         transform="translate(2.6666643,2.26659)"
         id="rect3130" />
      <path
         style="opacity:1;fill:#404040;fill-opacity:0.83921569;stroke:none;stroke-width:6.17102623;stroke-linecap:round;stroke-linejoin:bevel;stroke-miterlimit:4;stroke-dasharray:none;stroke-dashoffset:0;stroke-opacity:1"
         d="M 16 32 L 16 37.333984 L 29.189453 37.333984 C 29.698168 35.537438 30.369566 33.758777 31.212891 32 L 16 32 z M 51.666016 32 C 51.742751 32.554484 51.752813 32.584544 51.839844 33.255859 C 52.012189 34.585246 52.123649 35.932156 52.222656 37.333984 L 67.910156 37.333984 A 9.0631907 9.0631907 0 0 1 84.087891 37.333984 L 106.66602 37.333984 L 106.66602 32 L 51.666016 32 z "
         transform="translate(2.6666643,2.26659)"
         id="rect2051" />
      <path
         style="opacity:1;fill:#404040;fill-opacity:0.83921569;stroke:none;stroke-width:6.17102623;stroke-linecap:round;stroke-linejoin:bevel;stroke-miterlimit:4;stroke-dasharray:none;stroke-dashoffset:0;stroke-opacity:1"
         d="M 16 48 L 16 53.333984 L 29.013672 53.333984 C 28.644327 51.557107 28.37062 49.78682 28.222656 48 L 16 48 z M 55.972656 48 C 57.13466 49.981571 58.508386 51.707588 60.078125 53.333984 L 67.123047 53.333984 C 66.901516 52.574917 66.695021 51.783884 66.521484 50.916016 C 66.335957 49.988184 66.215297 49.009573 66.158203 48 L 55.972656 48 z M 88.931641 48 C 89.50995 49.439674 90.164678 51.203523 90.904297 53.333984 L 106.66602 53.333984 L 106.66602 48 L 88.931641 48 z "
         transform="translate(2.6666643,2.26659)"
         id="rect3124" />
      <path
         style="opacity:1;fill:#404040;fill-opacity:0.83921569;stroke:none;stroke-width:6.17102623;stroke-linecap:round;stroke-linejoin:bevel;stroke-miterlimit:4;stroke-dasharray:none;stroke-dashoffset:0;stroke-opacity:1"
         d="M 16 64 L 16 69.333984 L 34.464844 69.333984 C 33.644808 67.66421 32.884894 65.877089 32.162109 64 L 16 64 z M 93.666016 64 C 93.827541 65.667784 93.914801 67.465731 93.982422 69.333984 L 106.66602 69.333984 L 106.66602 64 L 93.666016 64 z "
         transform="translate(2.6666643,2.26659)"
         id="rect2053" />
      <path
         style="opacity:1;fill:#404040;fill-opacity:0.83921569;stroke:none;stroke-width:6.17102623;stroke-linecap:round;stroke-linejoin:bevel;stroke-miterlimit:4;stroke-dasharray:none;stroke-dashoffset:0;stroke-opacity:1"
         d="M 16 80 L 16 85.333984 L 48.054688 85.333984 C 46.705959 84.435184 45.39295 83.462663 44.128906 82.361328 C 43.276983 81.619065 42.463672 80.828543 41.681641 80 L 16 80 z M 94.244141 80 C 94.279056 81.812888 94.315747 83.60728 94.353516 85.333984 L 106.66602 85.333984 L 106.66602 80 L 94.244141 80 z "
         transform="translate(2.6666643,2.26659)"
         id="rect2055" />
      <path
         sodipodi:nodetypes="cccccccccccc"
         inkscape:connector-curvature="0"
         id="path2049"
         d="M 88.174619,94.846118 C 87.74685,85.327008 87.913248,69.81468 86.955874,64.432306 80.764205,44.986723 80.687458,50.802596 78.668519,43.680309 c -1.94666,6.292789 -0.29165,9.293039 1.94997,15.037659 1.021633,6.786647 -1.874818,14.713931 -2.924971,17.744533 C 62.58783,68.475672 49.790785,60.938807 46.006575,41.575024 c 0,-1.80456 -0.974986,-8.421142 -0.974986,-8.421142 -6.452409,9.178232 -6.151639,15.157635 -3.168691,25.864881 5.952573,18.465901 13.401143,22.276736 29.026358,27.970166 0.969211,0.288544 3.866985,0.402874 4.387429,1.503765 0.522797,0.851616 0.02813,4.216563 0.03034,6.353424 z"
         style="fill:#0066ff;fill-rule:evenodd;stroke:none;stroke-width:6.12645721px;stroke-linecap:butt;stroke-linejoin:miter;stroke-opacity:1" />
    </g>
  </g>
</svg>
